X: 24744
T: Madame Bonaparte
R: hornpipe
M: 4/4
K: Gmajor
|:d>c|B2 B>A B>dB>G|c2 c>B c>e c>A|G>B (3def g>fg>e|d2 d>e d>cB>A|
B2 B>A B>dB>G|c>Bc>d e>f (3gfe|d>BG>B c>AF>A|G2 G>F G2:|
|:B>A|G>B (3def g>fg>e|d3 e d>cB>A|G>B (3def g>fg>e|d3 e d>cB>A|
B>dG>d B>dG>d|c>eA>e c>eA>e|B>dG>d B>dG>d|F>AD>A F>AD>A|
B>dG>d B>dG>B|c>Bc>d e>f (3gfe|d>BG>B c>AF>A|G2 G>F G2:|

